src/components/00-materials/images-raw/LinkedIn.svg

<svg width="96" height="96" viewBox="0 0 96 96" fill="none" xmlns="http://www.w3.org/2000/svg">
<path d="M27.53 18.39C27.5005 19.8152 27.0509 21.1999 26.2376 22.3706C25.4243 23.5414 24.2835 24.4459 22.9583 24.971C21.633 25.496 20.1822 25.6182 18.7878 25.3221C17.3934 25.0261 16.1175 24.3249 15.1199 23.3067C14.1223 22.2884 13.4475 20.9984 13.1801 19.5982C12.9127 18.198 13.0645 16.7501 13.6167 15.4358C14.1688 14.1216 15.0966 12.9996 16.2837 12.2105C17.4708 11.4214 18.8645 11.0003 20.29 11C22.2297 11.0211 24.0817 11.8113 25.4392 13.1969C26.7967 14.5825 27.5487 16.4503 27.53 18.39V18.39ZM27.53 31.7H13V79H27.58L27.53 31.7ZM50.81 31.7H36.37V79H50.87V54.17C50.87 40.36 68.45 39.23 68.45 54.17V79H83V49.05C83 25.75 57 26.6 50.86 38.05L50.81 31.7Z" stroke="#00008F" stroke-width="2" stroke-linecap="round" stroke-linejoin="round"/>
</svg>

<svg width="96" height="96" viewBox="0 0 96 96" fill="none" xmlns="http://www.w3.org/2000/svg"><path d="M27.53 18.39A7.24 7.24 0 1120.29 11a7.32 7.32 0 017.24 7.39v0zm0 13.31H13V79h14.58l-.05-47.3zm23.28 0H36.37V79h14.5V54.17c0-13.81 17.58-14.94 17.58 0V79H83V49.05c0-23.3-26-22.45-32.14-11l-.05-6.35z" stroke="#00008F" stroke-width="2" stroke-linecap="round" stroke-linejoin="round"/></svg>
